X:2111 
T:Shenn ven!
C:Tom Kermode, Bradda
O:Isle of Man
C:Traditional
Z:Clague collection
B:Kiaull Vannin #111 
L:1/4
M:2/4  
K:G 
D/|GG |GG |A/>B/ A/>F/|G3/2 G/|G2 |D2 |F/>G/ A/>F/|G3/2 B/|
d c/B/|(cA) |GG |B3/2A/ |GB |e d/c/|B/G/ A|G3/2 ||

